X: 34752
T: Road To Lisdoonvarna, The
R: reel
M: 4/4
K: Dmixolydian
D.A{c}AG A(Bc)A|{c}G~E3 cE{A}GE|~D2{c}AG ~A2{d}cA|Bc{A}AG {F}FDE.A|
D.A{c}AG AdcA|{c}GE{A}ED E.F{A}GE|~D2{c}AG .AB{d}cA|(3B.c.dAG {F}FDE.A||
d2.{g}ed c.~A3|BDGB ^c.~A3|d.gfd c.~A3|B.G{B}AG {F}FDE.A|
d.(ef)d cAdc|{d}BDGB cdBG|FAde c3d|BG{B}AG F.AD.A|
Dz{c}AG AdcA|{c}G~E3 cE{A}GE|~D2{A}D A{c}~A2cA|(3B.c.dAG {F}FDE.A|
D.A{c}AG ABcA|{c}GE{A}ED E.F{A}GE|~D2AG AB{d}cA|Bc{A}AG {F}FDE.A||
d2{g}ed c~A3|BDG.B ^c~A3|d(.ef)d c.~A3|{B}AG{B}AG {F}FDE.A|
d.(ef)d c3A|{d}BDGB cdBG|FAde ceAc|BG{B}AG {F}FDE.A|

